icons/svg/32x32/time alt1/filled.svg

<svg xmlns="http://www.w3.org/2000/svg" width="32" height="32" viewBox="0 0 32 32">
  <path fill-rule="evenodd" d="M19.7998,20.5996 C19.6038,20.8626 19.3038,20.9996 18.9988,20.9996 C18.7898,20.9996 18.5798,20.9346 18.4008,20.7996 L14.4008,17.7996 C14.0778,17.5586 13.9328,17.1476 14.0298,16.7576 L16.0298,8.7576 C16.1638,8.2216 16.7048,7.8936 17.2418,8.0306 C17.7788,8.1636 18.1048,8.7066 17.9698,9.2426 L16.1308,16.5986 L19.5998,19.2006 C20.0418,19.5316 20.1318,20.1586 19.7998,20.5996 M15.9998,3.9996 C9.3728,3.9996 3.9998,9.3726 3.9998,15.9996 C3.9998,22.6266 9.3728,27.9996 15.9998,27.9996 C22.6268,27.9996 27.9998,22.6266 27.9998,15.9996 C27.9998,9.3726 22.6268,3.9996 15.9998,3.9996"/>
</svg>

<svg width="32" height="32" fill="none" xmlns="http://www.w3.org/2000/svg">
  <path fill-rule="evenodd" clip-rule="evenodd" d="M19.8 20.6a.994.994 0 01-1.4.2l-4-3a.999.999 0 01-.37-1.042l2-8a.996.996 0 011.212-.727.997.997 0 01.728 1.212l-1.84 7.356L19.6 19.2a.998.998 0 01.2 1.399zM16 4C9.373 4 4 9.373 4 16s5.373 12 12 12 12-5.373 12-12S22.627 4 16 4z" fill="#000"/>
</svg>
